X:6632
T:The Clumsy Lover
O:england
M:2/4
L:1/16
C:Neil Dickie
R:Hornpipe
H:Typical Highland Pipe arrangement w/o gracenotes
K:AMix
d2|ceef ecBA|dffd afdf|ceef ecBA|d2Bc decB|ceef ecBA|dffd gfed|ceec d2GB
|BAAB A2:||:d2|ceea aecA|dAdf afdf|ceea aecA|d2Bc decB|ceea aecA|dAdf af
df|ceec d2GB|BAAB A2:||:d2|ceec eece|dffd ffdf|ceec eece|dBBc decB|ceec
eece|dffd ffdf|ceec d2GB|BAAB A2:||:d2|caae aecA|daad aAde|caae aecA|d2B
c decB|caae aecA|daad aAda|ceec d2GB|BAAB A2:||:d2|ceeA e2Ae|d3f g>fed|c
eeA e2Ae|dBBc decB|ceeA e2Ae|d3f g>fed|ceec d2GB|BAAB A2:||:d2|caac aaca
|daad aada|caac aaca Baca daea|caac aaca|daaf aada|ceec d2GB|BAAB A2:||


